X:1
T:The Christmas Song
T:The Christmas Song
T:Words and Music By Mel Torme, Robert Wells
C:Mel Tormé
Z:All Rights Reserved
L:1/8
M:4/4
K:Eb
V:1 treble nm="Voice"
%%MIDI program 52
V:1
"Eb6" E2 e2"Bb7" dcBA |"Cm7" G2 c2 BA"Abm"GF |"Eb/Bb" G4"Bdim7" F2"Cm" E2 | %3
w: |||
"Fm9" G4-"Bb7b9" G2 G2 |:"Eb6" E2 e2"Bb7" dcBA |"Eb6" G2 G2"Fm7" G2-"Bb7" G2 | %6
w: |Chest- nuts roast- ing on an|o- pen fire *|
"Eb6" E2 c2"Bbm7" BA"Eb9"GF |"Ab" E4-"G+7" E4 |"Cm" E2 E2"Abm6" FFEF | %9
w: Jack Frost nip- ping at your|nose *|yule- tide car- ols be- ing|
"Eb" (3G2 B2 c2"Am7" d3"D7" c |"Gmaj7" =B2 B2"Abm7" _d_c"Db9"_BA |"Gbmaj7" B4"Fm7" BA"Bb7"GF | %12
w: sung by a choir and|folks dressed up like Es- ki-|mos. Ev- 'ry- bod- y|
"Eb6" E2 e2"Bb7" dcBA |"Eb6" GG G2-"Fm7" G2-"Bb7" G2 |"Eb6" E2 c2"Bbm7" BA"Eb9"GF | %15
w: knows a tur- key and some|mis- tle toe * *|help to make the sea- son|
"Ab" E4-"G+7" E2- E2 |"Cm7" E2 E2"Abm6" F2 EF |"Eb" (3G2 B2 c2"Am7" d3"D7" c | %18
w: bright. * *|Ti- ny tots with their|eyes all a- glow will|
"Gm7" BG"C7"cB"Fm7" A3"Bb7" D |"Eb6" E4 z E DE |"Bbm7" _d4-"Eb9" dcB=A |"Bbm7" B4"Eb9" z E"Eb7"DE | %22
w: find it hard to sleep to-|night. They know that|San- * ta's on his|way; he's load- ed|
"Bbm7" _dcdc"Eb9" dcBA |"Abmaj7" B4 z EDE |"Abm7" _cB c2-"Db9" cBA_G |"Gbmaj7" A4- A_GAG | %26
w: lots of toys and good- ies on his|sleigh, and ev- 'ry|moth er's child * is gon- na|spy * to see if|
"Cm7" FF- (3FFF"F7" (3F2 F2 F2 |"Fm7" F2- F4"Bb7b9" z G |"Eb6" E2 e2"Bb7" dcBA | %29
w: rein- deer * real- ly know how to|fly. * And|so I'm of- fer- ing this|
"Eb6" G2 G2"Fm7" G3"Bb7" G |"Eb6" E2 c2"Bbm7" BA"Eb9"GF |"Ab" E4- E2"G7" z D | %32
w: sim- ple phrase to|kids from one to nine- ty|two * Al|
"Cm7" E2 DE"Abm7" F2 EF |"Eb" G2"Cm7" Bc"D7" !fermata!d2"F#dim7" ec | %34
w: though it's been said man- y|times, man- y ways, "Mer- ry|
"Gm7" B2"Cm7" E2-"Fm7" E2"Bb7b9" F2 |1"Eb6" E6 z2 :|2"Eb6" E8 |] %37
w: Christ- mas * to|you|you."|

